icons/svg/token.svg

<?xml version="1.0" encoding="UTF-8"?>
<svg width="26px" height="26px" viewBox="0 0 26 26" version="1.1" xmlns="http://www.w3.org/2000/svg" xmlns:xlink="http://www.w3.org/1999/xlink">
    <g  stroke="none" stroke-width="1" fill="none" fill-rule="evenodd">
        <g transform="translate(-1083.000000, -443.000000)" fill-rule="nonzero">
            <g transform="translate(1083.000000, 443.000000)">
                <path d="M13,24.8181818 C6.47340909,24.8181818 1.18181818,19.5265909 1.18181818,13 C1.18181818,6.47340909 6.47340909,1.18181818 13,1.18181818 C19.5265909,1.18181818 24.8181818,6.47340909 24.8181818,13 C24.8181818,19.5265909 19.5265909,24.8181818 13,24.8181818 Z" fill="#F7BD01"></path>
                <path d="M18.4166018,16.9371429 C18.4364114,17.085715 18.4438399,17.2293326 18.4388875,17.368 C18.4339351,17.5066674 18.401745,17.6279995 18.3423161,17.732 C18.2828872,17.8360005 18.1887929,17.9201902 18.0600304,17.9845714 C17.9312678,18.0489527 17.7529839,18.0811429 17.5251732,18.0811429 C17.2082193,18.0910477 16.9927929,18.0192389 16.8788875,17.8657143 C16.7649822,17.7121897 16.6832687,17.462097 16.6337447,17.1154286 L15.9206018,11.752 C15.8809826,11.5241893 15.8215546,11.4102857 15.7423161,11.4102857 C15.6630776,11.4102857 15.5887926,11.5241893 15.519459,11.752 L13.855459,17.4571429 C13.8059349,17.6453343 13.7242214,17.7963804 13.6103161,17.9102857 C13.4964108,18.024191 13.2809843,18.0811429 12.9640304,18.0811429 C12.7956486,18.0811429 12.6569833,18.068762 12.5480304,18.044 C12.4390775,18.019238 12.3499355,17.9796193 12.2806018,17.9251429 C12.2112681,17.8706664 12.1592686,17.8062861 12.1246018,17.732 C12.089935,17.6577139 12.0577448,17.5660958 12.0280304,17.4571429 C11.7407908,16.4963761 11.4560318,15.5480047 11.1737447,14.612 C10.8914575,13.6759953 10.6116508,12.7276239 10.3343161,11.7668571 C10.2649824,11.5291417 10.1931736,11.4102857 10.1188875,11.4102857 C10.0446014,11.4102857 9.98764963,11.5291417 9.94803038,11.7668571 L9.24974467,17.0262857 C9.20022061,17.3828589 9.10365015,17.6478087 8.96003038,17.8211429 C8.81641062,17.9944771 8.55641322,18.0811429 8.18003038,18.0811429 C7.87298123,18.0811429 7.66003098,17.9944771 7.54117324,17.8211429 C7.4223155,17.6478087 7.39755384,17.3531449 7.46688752,16.9371429 L8.74460181,8.51314286 C8.79412587,8.16647446 8.92536265,7.89904856 9.1383161,7.71085714 C9.35126954,7.52266573 9.61621927,7.42857143 9.93317324,7.42857143 C10.2501272,7.42857143 10.5175531,7.50780873 10.735459,7.66628571 C10.9533648,7.8247627 11.1316487,8.14171191 11.2703161,8.61714286 L12.9640304,14.8274286 L14.6131732,8.58742857 C14.7419358,8.12190243 14.9177436,7.81238172 15.1406018,7.65885714 C15.3634601,7.50533257 15.6234575,7.42857143 15.9206018,7.42857143 C16.2078413,7.42857143 16.4678387,7.52514189 16.7006018,7.71828571 C16.9333649,7.91142954 17.0794587,8.19123626 17.1388875,8.55771429 L18.4166018,16.9371429 Z" id="M" fill="#F8E71C"></path>
                <path d="M13,23.3409091 C18.7111364,23.3409091 23.3409091,18.7111364 23.3409091,13 C23.3409091,7.28886364 18.7111364,2.65909091 13,2.65909091 C7.28886364,2.65909091 2.65909091,7.28886364 2.65909091,13 C2.65909091,18.7111364 7.28886364,23.3409091 13,23.3409091 Z M13,26 C5.82075,26 0,20.17925 0,13 C0,5.82075 5.82075,0 13,0 C20.17925,0 26,5.82075 26,13 C26,20.17925 20.17925,26 13,26 Z" id="形状" fill="#F8E71C"></path>
            </g>
        </g>
    </g>
</svg>

<svg width="26" height="26" xmlns="http://www.w3.org/2000/svg"><g><path d="M13 24.818C6.473 24.818 1.182 19.527 1.182 13 1.182 6.473 6.473 1.182 13 1.182c6.527 0 11.818 5.291 11.818 11.818 0 6.527-5.291 11.818-11.818 11.818z"/><path d="M18.417 16.937c.02.149.027.292.022.431a.779.779 0 01-.097.364.644.644 0 01-.282.253c-.129.064-.307.096-.535.096-.317.01-.532-.062-.646-.215-.114-.154-.196-.404-.245-.75l-.713-5.364c-.04-.228-.1-.342-.179-.342-.079 0-.153.114-.223.342l-1.664 5.705a.977.977 0 01-.245.453c-.114.114-.329.171-.646.171-.168 0-.307-.012-.416-.037a.666.666 0 01-.267-.119.528.528 0 01-.156-.193 1.742 1.742 0 01-.097-.275c-.287-.96-.572-1.909-.854-2.845-.283-.936-.562-1.884-.84-2.845-.069-.238-.14-.357-.215-.357-.074 0-.131.12-.171.357l-.698 5.26c-.05.356-.146.62-.29.794-.144.173-.404.26-.78.26-.307 0-.52-.087-.639-.26-.119-.173-.143-.468-.074-.884l1.278-8.424c.05-.347.18-.614.393-.802.213-.188.478-.282.795-.282.317 0 .585.079.802.237.218.159.397.476.535.951l1.694 6.21 1.65-6.24c.128-.465.304-.775.527-.928a1.34 1.34 0 01.78-.23c.287 0 .547.096.78.29.232.192.378.472.438.839l1.278 8.38z"/><path d="M13 23.34c5.711 0 10.34-4.629 10.34-10.34S18.712 2.66 13 2.66 2.66 7.288 2.66 13 7.288 23.34 13 23.34zM13 26C5.82 26 0 20.18 0 13S5.82 0 13 0s13 5.82 13 13-5.82 13-13 13z"/></g></svg>
